packages/icons/svg/Outline/arrow-left-down.svg

<svg width="24" height="24" viewBox="0 0 24 24" fill="none" xmlns="http://www.w3.org/2000/svg">
<g id="Icon/Outline/arrow-left-down">
<path id="Mask" fill-rule="evenodd" clip-rule="evenodd" d="M17.707 6.29301C17.316 5.90201 16.684 5.90201 16.293 6.29301L8 14.586V9.00001C8 8.44801 7.553 8.00001 7 8.00001C6.447 8.00001 6 8.44801 6 9.00001V17C6 17.552 6.447 18 7 18H15C15.553 18 16 17.552 16 17C16 16.448 15.553 16 15 16H9.414L17.707 7.70701C18.098 7.31601 18.098 6.68401 17.707 6.29301Z" fill="#000000"/>
</g>
</svg>

<svg fill="none" height="24" viewBox="0 0 24 24" width="24" xmlns="http://www.w3.org/2000/svg"><path clip-rule="evenodd" d="m17.707 6.29301c-.391-.391-1.023-.391-1.414 0l-8.293 8.29299v-5.58599c0-.552-.447-1-1-1s-1 .448-1 1v7.99999c0 .552.447 1 1 1h8c.553 0 1-.448 1-1s-.447-1-1-1h-5.586l8.293-8.29299c.391-.391.391-1.023 0-1.414" fill="#6b7280" fill-rule="evenodd"/></svg>
